X:1
T:Calm Embrace
M:4/4
L:1/8
K:Dm
A,2D2F2A2 | A2A2G2F2 | F2E2D2C2 | D4-D4 |
F2G2A2F2 | E4D2C2 | D2F2A2G2 | F4F4 |